images/App/wallet_dfx.svg

<svg fill="none" height="306" viewBox="0 0 500 306" width="500" xmlns="http://www.w3.org/2000/svg"><path d="m328.838 159.027c3.421 0 6.194-2.774 6.194-6.195s-2.773-6.195-6.194-6.195c-3.422 0-6.195 2.774-6.195 6.195s2.773 6.195 6.195 6.195z" fill="#f5516c"/><path d="m270.407 55.5647c2.184 0 3.954-1.7703 3.954-3.954s-1.77-3.954-3.954-3.954-3.954 1.7703-3.954 3.954 1.77 3.954 3.954 3.954z" fill="#f5516c"/><path d="m328.838 258.007c2.183 0 3.953-1.77 3.953-3.954 0-2.183-1.77-3.954-3.953-3.954-2.184 0-3.954 1.771-3.954 3.954 0 2.184 1.77 3.954 3.954 3.954z" fill="#f5516c"/><path d="m358.053 108.416c3.421 0 6.194-2.774 6.194-6.195 0-3.4209-2.773-6.1943-6.194-6.1943s-6.195 2.7734-6.195 6.1943c0 3.421 2.774 6.195 6.195 6.195z" fill="#f5516c"/><g stroke="#f5516c" stroke-miterlimit="10"><path d="m241.982 152.832h86.856l29.215-50.611 58.431-.044 29.215 50.611h54.301" stroke-width="8"/><path d="m416.484 102.221 27.589-50.6103h51.27" stroke-width="1.9437"/><path d="m241.191 1 29.216 50.6107-29.216 50.6103 29.216-50.6103h58.431l29.215-50.6107-29.215 50.6107 29.215 50.6103" stroke-width="2"/><path d="m182.717 203.443-29.216 50.61 29.216 50.611-29.216-50.611h-58.4303-.1318l-29.2153 50.611 29.2593-50.611-29.2154-50.61h-65.7675" stroke-width="2"/><path d="m95.0707 51.6107h58.4303l29.216 50.6103-29.216 50.611 29.216 50.611h58.474l29.216 50.61h58.431-58.431l-29.216 50.611" stroke-width="2"/><path d="m445.699 254.053-29.215-50.61h-58.431l-29.215 50.61 29.215 50.611-29.215-50.611 29.215-50.61-29.215-50.611" stroke-width="2"/></g><path d="m247.386 207.528h-134.962c-5.711 0-10.324-4.656-10.324-10.324v-88.744c0-5.711 4.657-10.3244 10.324-10.3244h134.918c5.711 0 10.324 4.6574 10.324 10.3244v88.7c.044 5.756-4.613 10.368-10.28 10.368z" fill="#f5516c"/><path d="m112.424 102.177c-3.47 0-6.282 2.812-6.282 6.283v88.7c0 3.471 2.812 6.283 6.282 6.283h134.918c3.471 0 6.282-2.812 6.282-6.283v-88.7c0-3.471-2.811-6.283-6.282-6.283z" fill="#063e62"/><g fill="#f5516c"><path d="m144.671 115.753c-9.402 0-17.09 7.688-17.09 17.09 0 9.401 7.688 17.09 17.09 17.09s17.09-7.689 17.09-17.09c.044-9.402-7.688-17.09-17.09-17.09zm0 5.535 6.985 11.643-6.985 4.173-7.029-4.173zm.088 23.153-7.029-9.885 7.029 4.174 6.985-4.174z"/><path d="m133.029 163.376c-9.402 0-17.09 7.688-17.09 17.09 0 9.401 7.688 17.09 17.09 17.09 9.401 0 17.09-7.689 17.09-17.09 0-9.402-7.689-17.09-17.09-17.09zm.044 27.722v-9.051c-.528.528-.967.967-1.494 1.494-.044.879-.176 3.295-.176 3.295l1.406 4.262c-.879 0-1.713-.132-2.504-.352l-.703-2.065-1.933.967c-.747-.44-1.45-.967-2.065-1.538l3.559-1.801.131-2.109-2.152.132-1.802 3.559c-.615-.616-1.142-1.318-1.581-2.065l.966-1.977-2.108-.703c-.22-.835-.352-1.67-.352-2.592l4.306 1.406 3.47-.132 1.45-1.45-1.45-1.45-3.47-.132-4.306 1.406c0-.878.132-1.757.352-2.548l2.152-.747-1.01-1.977c.439-.747.966-1.449 1.581-2.065l1.846 3.603 2.152.132-.131-2.109-3.603-1.845c.615-.615 1.318-1.142 2.065-1.582l1.977 1.011.747-2.109c.791-.22 1.669-.352 2.504-.352l-1.406 4.306s.132 2.416.176 3.295l1.494 1.494v-9.226c5.974 0 10.763 4.832 10.763 10.807-.088 5.975-4.92 10.808-10.851 10.808z"/><path d="m135.445 172.25v16.124c2.592-.571 6.195-3.603 6.063-8.304-.132-4.393-3.471-7.249-6.063-7.82z"/><path d="m181.399 163.64-.967 3.953c1.143.264 4.569 1.406 5.096-.834.572-2.329-3.031-2.856-4.129-3.119z"/><path d="m179.905 169.615-1.098 4.349c1.362.351 5.491 1.669 6.063-.791.659-2.592-3.647-3.251-4.965-3.558z"/><path d="m181.223 152.261c-9.402 0-17.09 7.688-17.09 17.09s7.688 17.09 17.09 17.09 17.09-7.688 17.09-17.09c.044-9.402-7.688-17.09-17.09-17.09zm8.216 14.542c-.308 1.757-1.275 2.592-2.549 2.899 1.758.923 2.68 2.329 1.846 4.789-1.055 3.031-3.603 3.295-6.986 2.68l-.834 3.295-1.977-.483.746-3.251c-.527-.132-1.01-.264-1.581-.396l-.835 3.251-1.977-.483.835-3.295-1.406-.351-2.548-.659 1.01-2.285s1.45.395 1.45.352c.571.131.791-.22.923-.484l2.196-8.874c.044-.44-.131-.923-.922-1.142.044 0-1.45-.352-1.45-.352l.527-2.109 2.724.703c.439.088.835.22 1.274.308l.791-3.251 1.977.483-.791 3.207c.527.132 1.098.22 1.582.395l.79-3.163 1.977.484-.79 3.251c2.504.834 4.349 2.108 3.998 4.481z"/><path d="m205.65 152.832c0 11.027 8.918 19.946 19.945 19.946h36.684v-39.935h-36.684c-11.027.044-19.945 8.962-19.945 19.989z"/></g><path d="m233.943 153.93c2.911 0 5.271-2.36 5.271-5.272 0-2.911-2.36-5.272-5.271-5.272-2.912 0-5.272 2.361-5.272 5.272 0 2.912 2.36 5.272 5.272 5.272z" fill="#063e62"/><path d="m235.304 163.683h-2.679c-.791 0-1.406-.702-1.275-1.449l1.275-10.544h2.723l1.274 10.544c.088.79-.527 1.449-1.318 1.449z" fill="#063e62"/><path d="m153.501 258.007c2.184 0 3.954-1.77 3.954-3.954 0-2.183-1.77-3.954-3.954-3.954-2.183 0-3.953 1.771-3.953 3.954 0 2.184 1.77 3.954 3.953 3.954z" fill="#f5516c"/><path d="m153.501 55.5647c2.184 0 3.954-1.7703 3.954-3.954s-1.77-3.954-3.954-3.954c-2.183 0-3.953 1.7703-3.953 3.954s1.77 3.954 3.953 3.954z" fill="#f5516c"/></svg>

<svg width="500" height="306" viewBox="0 0 500 306" fill="none" xmlns="http://www.w3.org/2000/svg">
<path d="M328.838 159.027C332.259 159.027 335.032 156.253 335.032 152.832C335.032 149.411 332.259 146.637 328.838 146.637C325.416 146.637 322.643 149.411 322.643 152.832C322.643 156.253 325.416 159.027 328.838 159.027Z" fill="#F5516C"/>
<path d="M270.407 55.5647C272.591 55.5647 274.361 53.7944 274.361 51.6107C274.361 49.427 272.591 47.6567 270.407 47.6567C268.223 47.6567 266.453 49.427 266.453 51.6107C266.453 53.7944 268.223 55.5647 270.407 55.5647Z" fill="#F5516C"/>
<path d="M328.838 258.007C331.021 258.007 332.791 256.237 332.791 254.053C332.791 251.87 331.021 250.099 328.838 250.099C326.654 250.099 324.884 251.87 324.884 254.053C324.884 256.237 326.654 258.007 328.838 258.007Z" fill="#F5516C"/>
<path d="M358.053 108.416C361.474 108.416 364.247 105.642 364.247 102.221C364.247 98.8001 361.474 96.0267 358.053 96.0267C354.632 96.0267 351.858 98.8001 351.858 102.221C351.858 105.642 354.632 108.416 358.053 108.416Z" fill="#F5516C"/>
<path d="M241.982 152.832H328.838L358.053 102.221L416.484 102.177L445.699 152.788H500" stroke="#F5516C" stroke-width="8" stroke-miterlimit="10"/>
<path d="M416.484 102.221L444.073 51.6107H495.343" stroke="#F5516C" stroke-width="1.9437" stroke-miterlimit="10"/>
<path d="M241.191 1L270.407 51.6107L241.191 102.221L270.407 51.6107H328.838L358.053 1L328.838 51.6107L358.053 102.221" stroke="#F5516C" stroke-width="2" stroke-miterlimit="10"/>
<path d="M182.717 203.443L153.501 254.053L182.717 304.664L153.501 254.053H95.0707H94.9389L65.7236 304.664L94.9829 254.053L65.7675 203.443H0" stroke="#F5516C" stroke-width="2" stroke-miterlimit="10"/>
<path d="M95.0707 51.6107H153.501L182.717 102.221L153.501 152.832L182.717 203.443H241.191L270.407 254.053H328.838H270.407L241.191 304.664" stroke="#F5516C" stroke-width="2" stroke-miterlimit="10"/>
<path d="M445.699 254.053L416.484 203.443H358.053L328.838 254.053L358.053 304.664L328.838 254.053L358.053 203.443L328.838 152.832" stroke="#F5516C" stroke-width="2" stroke-miterlimit="10"/>
<path d="M247.386 207.528H112.424C106.713 207.528 102.1 202.872 102.1 197.204V108.46C102.1 102.749 106.757 98.1356 112.424 98.1356H247.342C253.053 98.1356 257.666 102.793 257.666 108.46V197.16C257.71 202.916 253.053 207.528 247.386 207.528Z" fill="#F5516C"/>
<path d="M112.424 102.177C108.954 102.177 106.142 104.989 106.142 108.46V197.16C106.142 200.631 108.954 203.443 112.424 203.443H247.342C250.813 203.443 253.624 200.631 253.624 197.16V108.46C253.624 104.989 250.813 102.177 247.342 102.177H112.424Z" fill="#063E62"/>
<path d="M144.671 115.753C135.269 115.753 127.581 123.441 127.581 132.843C127.581 142.244 135.269 149.933 144.671 149.933C154.073 149.933 161.761 142.244 161.761 132.843C161.805 123.441 154.073 115.753 144.671 115.753ZM144.671 121.288L151.656 132.931L144.671 137.104L137.642 132.931L144.671 121.288ZM144.759 144.441L137.73 134.556L144.759 138.73L151.744 134.556L144.759 144.441Z" fill="#F5516C"/>
<path d="M133.029 163.376C123.627 163.376 115.939 171.064 115.939 180.466C115.939 189.867 123.627 197.556 133.029 197.556C142.43 197.556 150.119 189.867 150.119 180.466C150.119 171.064 142.43 163.376 133.029 163.376ZM133.073 191.098V182.047C132.545 182.575 132.106 183.014 131.579 183.541C131.535 184.42 131.403 186.836 131.403 186.836L132.809 191.098C131.93 191.098 131.096 190.966 130.305 190.746L129.602 188.681L127.669 189.648C126.922 189.208 126.219 188.681 125.604 188.11L129.163 186.309L129.294 184.2L127.142 184.332L125.34 187.891C124.725 187.275 124.198 186.573 123.759 185.826L124.725 183.849L122.617 183.146C122.397 182.311 122.265 181.476 122.265 180.554L126.571 181.96L130.041 181.828L131.491 180.378L130.041 178.928L126.571 178.796L122.265 180.202C122.265 179.324 122.397 178.445 122.617 177.654L124.769 176.907L123.759 174.93C124.198 174.183 124.725 173.481 125.34 172.865L127.186 176.468L129.338 176.6L129.207 174.491L125.604 172.646C126.219 172.031 126.922 171.504 127.669 171.064L129.646 172.075L130.393 169.966C131.184 169.746 132.062 169.614 132.897 169.614L131.491 173.92C131.491 173.92 131.623 176.336 131.667 177.215C132.194 177.742 132.633 178.181 133.161 178.709V169.483C139.135 169.483 143.924 174.315 143.924 180.29C143.836 186.265 139.004 191.098 133.073 191.098Z" fill="#F5516C"/>
<path d="M135.445 172.25C135.445 177.61 135.445 183.014 135.445 188.374C138.037 187.803 141.64 184.771 141.508 180.07C141.376 175.677 138.037 172.821 135.445 172.25Z" fill="#F5516C"/>
<path d="M181.399 163.64L180.432 167.593C181.575 167.857 185.001 168.999 185.528 166.759C186.1 164.43 182.497 163.903 181.399 163.64Z" fill="#F5516C"/>
<path d="M179.905 169.615L178.807 173.964C180.169 174.315 184.298 175.633 184.87 173.173C185.529 170.581 181.223 169.922 179.905 169.615Z" fill="#F5516C"/>
<path d="M181.223 152.261C171.821 152.261 164.133 159.949 164.133 169.351C164.133 178.753 171.821 186.441 181.223 186.441C190.625 186.441 198.313 178.753 198.313 169.351C198.357 159.949 190.625 152.261 181.223 152.261ZM189.439 166.803C189.131 168.56 188.164 169.395 186.89 169.702C188.648 170.625 189.57 172.031 188.736 174.491C187.681 177.522 185.133 177.786 181.75 177.171L180.916 180.466L178.939 179.983L179.685 176.732C179.158 176.6 178.675 176.468 178.104 176.336L177.269 179.587L175.292 179.104L176.127 175.809L174.721 175.458L172.173 174.799L173.183 172.514C173.183 172.514 174.633 172.909 174.633 172.866C175.204 172.997 175.424 172.646 175.556 172.382L177.752 163.508C177.796 163.068 177.621 162.585 176.83 162.366C176.874 162.366 175.38 162.014 175.38 162.014L175.907 159.905L178.631 160.608C179.07 160.696 179.466 160.828 179.905 160.916L180.696 157.665L182.673 158.148L181.882 161.355C182.409 161.487 182.98 161.575 183.464 161.75L184.254 158.587L186.231 159.071L185.441 162.322C187.945 163.156 189.79 164.43 189.439 166.803Z" fill="#F5516C"/>
<path d="M205.65 152.832C205.65 163.859 214.568 172.778 225.595 172.778H262.279V132.843H225.595C214.568 132.887 205.65 141.805 205.65 152.832Z" fill="#F5516C"/>
<path d="M233.943 153.93C236.854 153.93 239.214 151.57 239.214 148.658C239.214 145.747 236.854 143.386 233.943 143.386C231.031 143.386 228.671 145.747 228.671 148.658C228.671 151.57 231.031 153.93 233.943 153.93Z" fill="#063E62"/>
<path d="M235.304 163.683H232.625C231.834 163.683 231.219 162.981 231.35 162.234L232.625 151.69H235.348L236.622 162.234C236.71 163.024 236.095 163.683 235.304 163.683Z" fill="#063E62"/>
<path d="M153.501 258.007C155.685 258.007 157.455 256.237 157.455 254.053C157.455 251.87 155.685 250.099 153.501 250.099C151.318 250.099 149.548 251.87 149.548 254.053C149.548 256.237 151.318 258.007 153.501 258.007Z" fill="#F5516C"/>
<path d="M153.501 55.5647C155.685 55.5647 157.455 53.7944 157.455 51.6107C157.455 49.427 155.685 47.6567 153.501 47.6567C151.318 47.6567 149.548 49.427 149.548 51.6107C149.548 53.7944 151.318 55.5647 153.501 55.5647Z" fill="#F5516C"/>
</svg>
